packages/appstore/src/assets/svgs/wallet/paysafe-card-light.svg

<svg width="128" height="80" viewBox="0 0 128 80" fill="none" xmlns="http://www.w3.org/2000/svg">
<path d="M25.7336 35.742C27.379 35.742 28.2189 36.6619 28.2498 38.4508V43.9649C28.2335 44.5921 27.9644 45.1866 27.5026 45.6102C27.0554 46.0756 26.4409 46.3447 25.7936 46.3556H22.2557V50.3243H19.6377V38.5545C19.6068 37.8236 19.8231 37.1018 20.2522 36.5092C20.4813 36.2801 20.7521 36.0965 21.0485 35.9674C21.3467 35.822 21.6703 35.7456 22.0012 35.742H25.7336ZM43.6907 35.742V42.8195C43.6907 43.3904 43.9161 43.6667 44.387 43.6667H46.2378C46.445 43.6704 46.6468 43.594 46.8014 43.4522C46.9468 43.3486 47.0323 43.1813 47.0359 43.0032V35.742H49.623V47.4319C49.6412 48.1682 49.4048 48.8899 48.9576 49.4753C48.5231 50.008 47.8668 50.308 47.1777 50.2843H41.0436V47.6446H46.2705C46.4687 47.6337 46.6559 47.5537 46.8014 47.421C46.9359 47.3173 47.0141 47.1592 47.0159 46.9919V46.3556H43.6725C43.3234 46.3683 42.9762 46.3083 42.6489 46.1829C42.3362 46.0611 42.0544 45.8738 41.8217 45.6302C41.5744 45.3757 41.3835 45.0739 41.2581 44.7412C41.1308 44.4139 41.069 44.0685 41.0763 43.7176V35.7438H43.6943L43.6907 35.742ZM96.0418 35.7529V36.3765H92.093C91.5167 36.3437 90.944 36.4946 90.4567 36.8055C90.015 37.2127 89.7913 37.8036 89.855 38.3999V43.4122C89.855 43.7576 89.9059 44.1031 90.0077 44.4339C90.1277 44.7594 90.3277 45.0466 90.5895 45.2739C90.8313 45.4775 91.1203 45.6193 91.4294 45.6811C91.7348 45.7447 92.0476 45.7756 92.3603 45.7738H96.0928V46.4083H92.2984V46.3574C91.9348 46.3574 91.5712 46.3211 91.2149 46.2538C90.8367 46.1811 90.4858 46.0102 90.1913 45.7629C89.8586 45.492 89.6023 45.1412 89.4459 44.7412C89.2968 44.323 89.2241 43.8849 89.2296 43.4431V38.4308C89.2205 38.0854 89.2605 37.74 89.3532 37.4091C89.4623 37.0655 89.6513 36.7546 89.9059 36.5001C90.1859 36.2056 90.5386 35.991 90.9276 35.8747C91.2931 35.7892 91.6676 35.7474 92.0421 35.7529H96.0418ZM36.2966 35.742C38.0292 35.742 38.9092 36.5801 38.9364 38.2581V43.8722C38.9382 44.5176 38.7055 45.1448 38.2819 45.6302C37.8456 46.1102 37.222 46.3756 36.5729 46.3574H32.995C31.246 46.3574 30.3661 45.5393 30.3352 43.9631V41.7978C30.2515 41.1033 30.4915 40.4088 30.986 39.9162C31.4824 39.4216 32.1769 39.1853 32.8714 39.2726H36.3893V39.0162L36.3384 39.0471C36.3384 38.6381 36.1239 38.4545 35.6421 38.4654H30.377V35.7401H36.2966V35.742ZM59.6769 35.722V38.4126H55.0608C54.5191 38.4126 54.2536 38.5763 54.2536 38.9035V39.1362C54.2536 39.4853 54.53 39.6489 55.0808 39.6489H57.3825C57.9825 39.6616 58.5533 39.9216 58.957 40.3634C59.3897 40.8033 59.6333 41.3942 59.6333 42.0105V43.9649C59.6024 44.6012 59.3351 45.2012 58.8861 45.652C58.6861 45.8884 58.4388 46.0793 58.1588 46.2138C57.8298 46.3192 57.4843 46.3665 57.1371 46.3574H51.6556V43.6667H56.3099C56.7389 43.6667 56.9535 43.4849 56.9734 43.1577V42.9213C56.9716 42.8395 56.9498 42.7577 56.9116 42.685C56.7989 42.4814 56.6771 42.3796 56.5244 42.3796H54.2118C53.5573 42.3796 52.9264 42.1269 52.4537 41.6724C52.0065 41.296 51.7411 40.7452 51.7265 40.1598V38.1145C51.7265 36.5474 52.5756 35.7492 54.2736 35.722H59.6733H59.6769ZM67.4582 35.742C69.1854 35.742 70.0653 36.611 70.0853 38.2581V43.8722C70.0981 44.5176 69.8672 45.1448 69.4417 45.6302C69.0054 46.1102 68.3818 46.3756 67.7328 46.3574H64.1439C62.4058 46.3574 61.5168 45.5393 61.495 43.9631V41.7978C61.4132 41.1088 61.6495 40.4216 62.1386 39.9289C62.6258 39.438 63.313 39.1944 64.0021 39.2726H67.4782V39.0162L67.4982 39.0471C67.4982 38.6381 67.2837 38.4545 66.7928 38.4654H61.5368V35.7401H67.4582V35.742ZM76.6831 31.795V34.393H75.6595C75.1068 34.393 74.8305 34.6675 74.8214 35.1802V35.742H76.6813V38.4326H74.8305V46.3574H72.1834V34.2276C72.1779 33.5549 72.4743 32.9131 72.9906 32.4804C73.5669 32.0114 74.2942 31.7678 75.0359 31.795H76.6831ZM80.7919 35.742H84.3117C85.0026 35.6765 85.6898 35.931 86.1716 36.4328C86.6534 36.9346 86.8806 37.6291 86.7861 38.3181V40.4361L80.8755 42.7577V42.9213C80.861 43.1086 80.9246 43.2922 81.0483 43.4322C81.1028 43.5722 81.2373 43.6649 81.3864 43.6686H86.7552V46.3574H81.0483C80.6374 46.372 80.2265 46.3211 79.832 46.2029C79.5175 46.1029 79.232 45.932 78.9938 45.7029C78.732 45.4629 78.5321 45.1648 78.4121 44.8339C78.2884 44.4339 78.2321 44.0158 78.2484 43.5958V38.2272C78.1757 37.5364 78.423 36.8528 78.9211 36.3692C79.4156 35.8856 80.1065 35.6547 80.7937 35.742H80.7919ZM103.792 35.6802C104.241 35.6747 104.69 35.7092 105.132 35.782C105.338 35.822 105.532 35.902 105.705 36.0183C105.907 36.1456 106.081 36.3128 106.218 36.5092C106.694 37.12 106.945 37.88 106.923 38.6563V43.4631C106.923 43.8049 106.894 44.1467 106.841 44.4848C106.756 44.8648 106.576 45.2157 106.319 45.5084C105.796 46.0793 105.047 46.3901 104.274 46.3574H101.203C100.472 46.3865 99.7598 46.1247 99.2198 45.6302C98.7489 45.1757 98.4726 44.5612 98.4417 43.9158V42.0305C98.3453 41.2779 98.598 40.5197 99.1271 39.9743C99.6562 39.4289 100.407 39.1544 101.163 39.2289H106.358V38.5235C106.37 37.9709 106.194 37.4291 105.858 36.9891C105.672 36.7273 105.412 36.5274 105.11 36.4165C104.776 36.3365 104.432 36.2983 104.087 36.3037H98.4126V35.6802H103.79H103.792ZM113.592 35.6802V36.3037H112.792C111.341 36.3037 110.625 37.1218 110.655 38.6872V46.3574H110.021V38.6872C110.021 36.6419 110.952 35.6802 112.893 35.6802H113.59H113.592ZM123.971 32.2132V43.3922H124C123.94 45.4375 122.876 46.3974 120.789 46.3556H118.468C118.026 46.3611 117.584 46.3192 117.15 46.2338C116.708 46.1029 116.311 45.852 116.004 45.5066C115.75 45.2157 115.571 44.863 115.482 44.4848C115.377 44.1031 115.337 43.7049 115.359 43.3104V38.7363C115.359 36.691 116.382 35.6692 118.428 35.6692H123.346V32.2132H123.971ZM123.376 36.3037H118.428C118.082 36.2965 117.737 36.3383 117.404 36.4274C117.07 36.5146 116.768 36.7037 116.546 36.9691C116.311 37.1891 116.142 37.4691 116.055 37.7763C115.951 38.1072 115.91 38.4545 115.931 38.7999V43.6886C115.855 44.3285 116.128 44.9612 116.648 45.343C116.888 45.4884 117.15 45.5938 117.424 45.652C117.742 45.7375 118.068 45.7793 118.397 45.7738H120.555C121.258 45.8011 121.955 45.6048 122.538 45.2102C123.084 44.7666 123.378 44.0831 123.326 43.3813L123.376 36.3037ZM106.298 39.8525H101.052C100.503 39.8416 99.9725 40.0525 99.5798 40.4343C99.2489 40.8015 99.0544 41.2669 99.0271 41.756V43.6049C99.0235 43.8904 99.058 44.1758 99.1289 44.4521C99.2053 44.7394 99.378 44.9884 99.6198 45.1593C100.038 45.5229 100.571 45.7229 101.123 45.7211H104.305C105.632 45.7211 106.35 45.0048 106.35 43.614L106.298 39.8507V39.8525ZM25.0282 38.4308H22.9829C22.7757 38.4254 22.5757 38.5072 22.4357 38.6581C22.3302 38.7708 22.2648 38.9144 22.2466 39.0653V42.8795C22.2248 43.0995 22.3066 43.3159 22.4648 43.4704C22.6248 43.6231 22.8466 43.6958 23.0647 43.6667H24.9355C25.1228 43.6704 25.3009 43.5922 25.4264 43.4522C25.5537 43.3468 25.6264 43.1886 25.6209 43.0232V39.0762C25.6209 38.6581 25.4064 38.4417 25.0282 38.4308ZM33.0641 41.8978C32.955 42.0687 32.9095 42.2705 32.9332 42.4705L32.9532 43.1359C32.9532 43.285 33.0295 43.4268 33.1586 43.5031C33.2859 43.6177 33.4568 43.6758 33.6277 43.6667H35.673C36.1239 43.6667 36.3584 43.494 36.3693 43.1359V42.3905C36.3693 41.9796 36.133 41.776 35.653 41.776H33.6077C33.4186 41.7578 33.2295 41.8014 33.0659 41.8978H33.0641ZM64.2257 41.8978C64.113 42.0669 64.0621 42.2687 64.0839 42.4705L64.1021 43.1359C64.1021 43.2886 64.1857 43.4286 64.3184 43.5031C64.4475 43.6177 64.6166 43.6758 64.7893 43.6667H66.8346C67.2837 43.6667 67.52 43.494 67.5291 43.1359V42.3905C67.5291 41.9796 67.2928 41.776 66.8128 41.776H64.7693C64.5802 41.7578 64.3912 41.8014 64.2275 41.8978H64.2257ZM83.4954 38.4308H81.6737C81.4682 38.4199 81.2664 38.4908 81.1119 38.6254C80.9392 38.729 80.8337 38.9162 80.8355 39.1162V40.1598L84.1081 38.9635V38.9017C84.1135 38.7672 84.0535 38.6363 83.9444 38.5545C83.8099 38.469 83.6535 38.4272 83.4954 38.4308Z" fill="#008AC9"/>
<path d="M12.736 35.741C14.3814 35.761 15.2504 36.6609 15.2504 38.4499V43.564C15.2195 45.353 14.3814 46.2729 12.7342 46.2729H6.3546C6.02735 46.2693 5.70374 46.1966 5.40376 46.0602C5.11287 45.9348 4.84743 45.7621 4.61653 45.5475C4.19111 44.953 3.97658 44.2331 4.00203 43.5022V38.5135C3.97839 37.7845 4.19474 37.0663 4.61472 36.4682C4.84743 36.2573 5.11287 36.0882 5.40194 35.9682C5.69828 35.8228 6.02372 35.7464 6.35279 35.7428L12.736 35.741ZM9.53622 30.0014C12.3324 29.9378 14.6995 32.0413 14.9668 34.8192C14.994 35.161 14.994 35.5028 14.9668 35.8428C14.5595 35.4737 14.0559 35.2283 13.5123 35.1374C13.1342 33.2957 11.5106 31.9722 9.62712 31.9722C7.74542 31.9722 6.12189 33.2939 5.74192 35.1374C5.53102 35.1828 5.32376 35.2519 5.12741 35.3428L5.17832 35.3119C4.87652 35.4446 4.5929 35.621 4.34201 35.8337V35.0665C4.47473 32.2758 6.74367 30.0669 9.53622 30.0014Z" fill="#E3001B"/>
</svg>

<svg width="128" height="80" fill="none" xmlns="http://www.w3.org/2000/svg"><path d="M25.734 35.742c1.645 0 2.485.92 2.516 2.709v5.514a2.314 2.314 0 0 1-.747 1.645 2.427 2.427 0 0 1-1.71.746h-3.537v3.968h-2.618v-11.77c-.031-.73.185-1.452.614-2.045.23-.229.5-.413.797-.542.298-.145.621-.221.952-.225h3.733zm17.957 0v7.078c0 .57.225.847.696.847h1.85a.813.813 0 0 0 .564-.215.564.564 0 0 0 .235-.449v-7.261h2.587v11.69a3.238 3.238 0 0 1-.665 2.043 2.197 2.197 0 0 1-1.78.81h-6.134v-2.64h5.227a.858.858 0 0 0 .53-.224.549.549 0 0 0 .215-.43v-.635h-3.343a2.596 2.596 0 0 1-1.024-.173 2.291 2.291 0 0 1-.827-.553 2.577 2.577 0 0 1-.564-.889 2.662 2.662 0 0 1-.182-1.023v-7.974h2.618l-.003-.002zm52.35.01v.624h-3.948a2.753 2.753 0 0 0-1.636.43 1.895 1.895 0 0 0-.602 1.594v5.012c0 .346.05.691.153 1.022.12.325.32.613.582.84.241.203.53.345.84.407.305.064.618.095.93.093h3.733v.634h-3.795v-.05c-.363 0-.727-.037-1.083-.104a2.255 2.255 0 0 1-1.024-.491 2.48 2.48 0 0 1-.745-1.022 3.72 3.72 0 0 1-.216-1.298v-5.012c-.01-.346.03-.691.123-1.022.11-.343.298-.654.553-.909.28-.294.633-.509 1.022-.625a4.6 4.6 0 0 1 1.114-.122h4zm-59.744-.01c1.732 0 2.612.838 2.64 2.516v5.614a2.666 2.666 0 0 1-.655 1.758c-.436.48-1.06.746-1.71.727h-3.577c-1.749 0-2.629-.818-2.66-2.394v-2.165a2.268 2.268 0 0 1 2.536-2.525h3.518v-.257l-.05.031c0-.409-.215-.592-.697-.582h-5.265V35.74h5.92v.002zm23.38-.02v2.69H55.06c-.542 0-.807.164-.807.492v.232c0 .35.276.513.827.513h2.301a2.2 2.2 0 0 1 1.575.714c.433.44.676 1.031.676 1.648v1.954a2.567 2.567 0 0 1-.747 1.687c-.2.236-.447.427-.727.562a3.083 3.083 0 0 1-1.022.143h-5.481v-2.69h4.654c.429 0 .643-.182.663-.51v-.236a.537.537 0 0 0-.061-.236c-.113-.204-.235-.305-.388-.305h-2.312a2.537 2.537 0 0 1-1.758-.708 2.044 2.044 0 0 1-.727-1.512v-2.045c0-1.568.849-2.366 2.547-2.393H59.677zm7.781.02c1.727 0 2.607.869 2.627 2.516v5.614a2.591 2.591 0 0 1-.643 1.758c-.437.48-1.06.746-1.71.727h-3.588c-1.738 0-2.627-.818-2.649-2.394v-2.165a2.27 2.27 0 0 1 2.507-2.525h3.476v-.257l.02.031c0-.409-.214-.592-.705-.582h-5.256V35.74h5.921v.002zm9.225-3.947v2.598H75.66c-.552 0-.829.274-.838.787v.562h1.86v2.69h-1.85v7.925h-2.648v-12.13a2.258 2.258 0 0 1 .808-1.747 3.063 3.063 0 0 1 2.045-.685h1.647zm4.109 3.947h3.52a2.277 2.277 0 0 1 2.474 2.576v2.118l-5.91 2.322v.163c-.015.188.049.371.172.511.055.14.19.233.338.237h5.37v2.688h-5.708a3.77 3.77 0 0 1-1.216-.154c-.314-.1-.6-.271-.838-.5a2.196 2.196 0 0 1-.582-.87c-.124-.4-.18-.817-.164-1.237v-5.369a2.27 2.27 0 0 1 2.545-2.485h-.001zm23-.062c.449-.005.898.03 1.34.102.206.04.4.12.573.236.202.128.376.295.513.491.476.611.727 1.371.705 2.147v4.807c0 .342-.029.684-.082 1.022-.085.38-.265.73-.522 1.023a2.624 2.624 0 0 1-2.045.85h-3.071a2.773 2.773 0 0 1-1.983-.728 2.554 2.554 0 0 1-.778-1.714V42.03a2.5 2.5 0 0 1 2.721-2.802h5.195v-.706a2.442 2.442 0 0 0-.5-1.534 1.59 1.59 0 0 0-.748-.572 4.117 4.117 0 0 0-1.023-.113h-5.674v-.624h5.379zm9.8 0v.624h-.8c-1.451 0-2.167.818-2.137 2.383v7.67h-.634v-7.67c0-2.045.931-3.007 2.872-3.007h.699zm10.379-3.467v11.18H124c-.06 2.044-1.124 3.004-3.211 2.963h-2.321a6.417 6.417 0 0 1-1.318-.122 2.47 2.47 0 0 1-1.146-.727 2.386 2.386 0 0 1-.522-1.022 3.665 3.665 0 0 1-.123-1.175v-4.574c0-2.045 1.023-3.067 3.069-3.067h4.918v-3.456h.625zm-.595 4.09h-4.948a3.668 3.668 0 0 0-1.024.124 1.67 1.67 0 0 0-.858.542c-.235.22-.404.5-.491.807a2.84 2.84 0 0 0-.124 1.024v4.889a1.79 1.79 0 0 0 .717 1.654c.24.145.502.25.776.309.318.085.644.127.973.122h2.158c.703.027 1.4-.17 1.983-.564.546-.443.84-1.127.788-1.829l.05-7.077zm-17.078 3.55h-5.246c-.549-.011-1.08.2-1.472.581-.331.367-.526.833-.553 1.322v1.849c-.004.285.031.57.102.847.076.287.249.536.49.707.419.364.952.564 1.504.562h3.182c1.327 0 2.045-.716 2.045-2.107l-.052-3.763v.002zm-81.27-1.422h-2.045a.72.72 0 0 0-.736.634v3.815a.726.726 0 0 0 .818.787h1.87a.64.64 0 0 0 .491-.215.535.535 0 0 0 .195-.429v-3.947c0-.418-.215-.634-.593-.645zm8.036 3.467a.872.872 0 0 0-.13.572l.02.666c0 .149.075.29.205.367a.652.652 0 0 0 .469.164h2.045c.45 0 .685-.173.696-.531v-.745c0-.411-.236-.615-.716-.615h-2.045a.898.898 0 0 0-.542.122h-.002zm31.162 0a.864.864 0 0 0-.142.572l.018.666c0 .153.084.293.216.367.13.115.299.173.471.164h2.046c.449 0 .685-.173.694-.531v-.745c0-.411-.236-.615-.716-.615h-2.044a.898.898 0 0 0-.541.122h-.002zm19.27-3.467h-1.822a.793.793 0 0 0-.562.194.568.568 0 0 0-.276.491v1.044l3.272-1.196v-.062a.413.413 0 0 0-.164-.348.802.802 0 0 0-.449-.123z" fill="#008AC9"/><path d="M12.736 35.741c1.645.02 2.514.92 2.514 2.709v5.114c-.03 1.789-.869 2.709-2.516 2.709h-6.38a2.36 2.36 0 0 1-.95-.213 2.757 2.757 0 0 1-.787-.513 3.316 3.316 0 0 1-.615-2.045v-4.989a3.372 3.372 0 0 1 .613-2.045c.232-.21.498-.38.787-.5.296-.145.622-.222.95-.225l6.384-.002zm-3.2-5.74a5.332 5.332 0 0 1 5.43 4.818 6.43 6.43 0 0 1 0 1.024 2.87 2.87 0 0 0-1.454-.706 3.966 3.966 0 0 0-7.77 0c-.211.046-.418.115-.615.206l.051-.031c-.301.133-.585.309-.836.522v-.768c.133-2.79 2.402-5 5.194-5.065z" fill="#E3001B"/></svg>
